!!!COM: Haydn, Franz Joseph 
!!!OPR: Symphony in D Major 
!!!OTL: Adagio 
!!!OMV: 2 
!!!SCT: H I:31 
!!!SCA: Thematisch-bibliographisches Werkevererzeichnis (A. van Hoboken) 
!!!YOR: Breitkopf & Härtel Edition 
!!!EED: Frances Bennion 
!!!ENC: Frances Bennion 
!!!CDT: 1732/3/31/-1809/5/31/
!!!OCY: Österreich 
!!!YEC: Copyright (c) 1994, 2000 Center for Computer Assisted Research in the Humanities 
!!!YEM: Rights to all derivative editions reserved. 
!!!YEM: Refer to licensing agreement for further details. 
!!!YEN: United States of America 
**kern	**kern	**kern	**kern	**kern	**kern	**kern	**kern	**kern	**kern	**kern
*k[]	*k[f#]	*k[f#]	*k[]	*k[]	*k[]	*k[f#]	*k[f#]	*k[f#]	*k[f#]	*k[f#]
*C:	*C:	*C:	*C:	*C:	*C:	*C:	*C:	*C:	*C:	*C:
*clefF	*clefF4	*clefF4	*clefF	*clefF	*clefF	*clefF	*clefF	*clefF	*clefC3	*clefF4
*M6/8	*M6/8	*M6/8	*M6/8	*M6/8	*M6/8	*M6/8	*M6/8	*M6/8	*M6/8	*M6/8
*tb32	*tb32	*tb32	*tb32	*tb32	*tb32	*tb32	*tb32	*tb32	*tb32	*tb32
=0-	=0-	=0-	=0-	=0-	=0-	=0-	=0-	=0-	=0-	=0-
2r	2r	2r	2r	3..r	3..r	2r	2r	2r	2r	2r
8r	8r	8r	8r	.	.	8r	8r	8r	8r	8r
.	.	.	.	24r	24r	.	.	.	.	.
8r	8r	8r	8r	8r	8r	8dd	8r	8r	8r	8r
=1	=1	=1	=1	=1	=1	=1	=1	=1	=1	=1
2.r	4G	4G	2.r	2.r	2.r	8.dd	4b	4d	4g	4G
.	.	.	.	.	.	16ee	.	.	.	.
.	8G	8G	.	.	.	8dd	8b	8d	8g	8G
.	4F#	4F#	.	.	.	16dd	4cc	4d	4f#	4F#
.	.	.	.	.	.	16cc	.	.	.	.
.	.	.	.	.	.	16a	.	.	.	.
.	.	.	.	.	.	16f#	.	.	.	.
.	8F#	8F#	.	.	.	16d	8a	8d	8f#	8F#
.	.	.	.	.	.	16c	.	.	.	.
=2	=2	=2	=2	=2	=2	=2	=2	=2	=2	=2
2.r	4G	4G	2.r	2.r	2.r	8B	4b	4d	4g	4G
.	.	.	.	.	.	8d	.	.	.	.
.	8G	8G	.	.	.	8g	8b	8d	8g	8G
.	4G	4G	.	.	.	4b	4b	4d	4g	4G
.	8G	8G	.	.	.	32a	8b	8d	8g	8G
.	.	.	.	.	.	32g	.	.	.	.
.	.	.	.	.	.	32f#	.	.	.	.
.	.	.	.	.	.	32g	.	.	.	.
=3	=3	=3	=3	=3	=3	=3	=3	=3	=3	=3
2.r	4C	4C	2.r	2.r	2.r	8e	4cc	4e	4c	4C
.	.	.	.	.	.	16r	.	.	.	.
.	.	.	.	.	.	32dd#	.	.	.	.
.	.	.	.	.	.	32ee	.	.	.	.
.	8C	8C	.	.	.	32dd	8cc	8e	8c	8C
.	.	.	.	.	.	32cc	.	.	.	.
.	.	.	.	.	.	32b	.	.	.	.
.	.	.	.	.	.	32a	.	.	.	.
.	4D	4D	.	.	.	32g	4cc	4f#	4d	4D
.	.	.	.	.	.	32f#	.	.	.	.
.	.	.	.	.	.	32a	.	.	.	.
.	.	.	.	.	.	32b	.	.	.	.
.	.	.	.	.	.	32cc	.	.	.	.
.	.	.	.	.	.	32b	.	.	.	.
.	.	.	.	.	.	32a	.	.	.	.
.	.	.	.	.	.	32g	.	.	.	.
.	8D	8D	.	.	.	32f#	8cc	8f#	8a	8D
.	.	.	.	.	.	32e	.	.	.	.
.	.	.	.	.	.	32d	.	.	.	.
.	.	.	.	.	.	32c	.	.	.	.
=4	=4	=4	=4	=4	=4	=4	=4	=4	=4	=4
2.r	4G	4G	2.r	3..r	3..r	32B	4b	4g	4d	4G
.	.	.	.	.	.	32c	.	.	.	.
.	.	.	.	.	.	32d	.	.	.	.
.	.	.	.	.	.	32e	.	.	.	.
.	.	.	.	.	.	32f#	.	.	.	.
.	.	.	.	.	.	32g	.	.	.	.
.	.	.	.	.	.	32f#	.	.	.	.
.	.	.	.	.	.	32g	.	.	.	.
.	8G	8G	.	.	.	32f#	8g	8B	8d	8G
.	.	.	.	.	.	32g	.	.	.	.
.	.	.	.	.	.	32f#	.	.	.	.
.	.	.	.	.	.	32g	.	.	.	.
.	4G	4G	.	.	.	8G	4g	4B	4d	4G
.	.	.	.	.	.	4r	.	.	.	.
.	.	.	.	24r	24r	.	.	.	.	.
.	8r	8r	.	8gg	8ee	.	8dd	8b	8r	8r
=5	=5	=5	=5	=5	=5	=5	=5	=5	=5	=5
2.r	4GG	4GG	2.r	8.gg	8.ee	2.r	8.dd	8.b	4G	4GG
.	.	.	.	16aa	16ff	.	16ee	16cc	.	.
.	8GG	8GG	.	8gg	8ee	.	8dd	8b	8G	8GG
.	4D	4D	.	8ff	8dd	.	8cc	8a	4d	4D
.	.	.	.	8ee	8cc	.	8b	8g	.	.
.	8D	8D	.	8dd	8g	.	8a	8f#	8d	8D
=6	=6	=6	=6	=6	=6	=6	=6	=6	=6	=6
2.r	4G	4G	2.r	4.cc	4.e	2.r	4g	4g	4g	4G
.	8G	8G	.	.	.	.	8b	8b	8g	8G
.	4F#	4F#	.	4dd	4g	.	4cc	4a	4d	4F#
.	8G	8G	.	24ee	24cc	.	8b	8g	8d	8G
.	.	.	.	24ff	24dd	.	.	.	.	.
.	.	.	.	24gg	24ee	.	.	.	.	.
=7	=7	=7	=7	=7	=7	=7	=7	=7	=7	=7
2.r	4D	4D	2.r	8ff	8dd	2r	8a	8c	4d	4D
.	.	.	.	8ee	8cc	.	8g	8B	.	.
.	8D	8D	.	8d	8g	.	8f#	8A	8d	8D
.	4GG	4GG	.	4c	4e	.	4g	8B	8d	4GG
.	.	.	.	.	.	8r	.	4r	4r	.
.	8r	8r	.	8r	8r	8dd	8r	.	.	8r
=8	=8	=8	=8	=8	=8	=8	=8	=8	=8	=8
2.r	4G	4G	2.r	2.r	2.r	8.dd	4b	4d	4g	4G
.	.	.	.	.	.	16ee	.	.	.	.
.	8G	8G	.	.	.	8dd	8b	8d	8g	8G
.	4F#	4F#	.	.	.	16dd	4cc	4d	4f#	4F#
.	.	.	.	.	.	16cc	.	.	.	.
.	.	.	.	.	.	16a	.	.	.	.
.	.	.	.	.	.	16f#	.	.	.	.
.	8F#	8F#	.	.	.	16d	8a	8d	8f#	8F#
.	.	.	.	.	.	16c	.	.	.	.
=9	=9	=9	=9	=9	=9	=9	=9	=9	=9	=9
2.r	4G	4G	2.r	2.r	2.r	8B	4b	4d	4g	4G
.	.	.	.	.	.	8d	.	.	.	.
.	8G	8G	.	.	.	8g	8b	8d	8G	8G
.	4G	4G	.	.	.	4b	4b	4d	4G	4G
.	8G	8G	.	.	.	32a	8b	8g	8G	8G
.	.	.	.	.	.	32g	.	.	.	.
.	.	.	.	.	.	32f#	.	.	.	.
.	.	.	.	.	.	32g	.	.	.	.
=10	=10	=10	=10	=10	=10	=10	=10	=10	=10	=10
2.r	4A	4A	2.r	2.r	2.r	4cc	4cc	4f#	4A	4A
.	8A	8A	.	.	.	32b	8cc	8a	8A	8A
.	.	.	.	.	.	32a	.	.	.	.
.	.	.	.	.	.	32g	.	.	.	.
.	.	.	.	.	.	32f#	.	.	.	.
.	4B	4B	.	.	.	4dd	4dd	4g	4B	4B
.	8B	8B	.	.	.	32cc	8dd	8g	8B	8B
.	.	.	.	.	.	32b	.	.	.	.
.	.	.	.	.	.	32a	.	.	.	.
.	.	.	.	.	.	32g	.	.	.	.
=11	=11	=11	=11	=11	=11	=11	=11	=11	=11	=11
2.r	4c	4c	2.r	2.r	2.r	32dd#	4ee	4g	4c	4c
.	.	.	.	.	.	32ee	.	.	.	.
.	.	.	.	.	.	32dd#	.	.	.	.
.	.	.	.	.	.	32ee	.	.	.	.
.	.	.	.	.	.	32dd#	.	.	.	.
.	.	.	.	.	.	32ee	.	.	.	.
.	.	.	.	.	.	32dd#	.	.	.	.
.	.	.	.	.	.	32ee	.	.	.	.
.	8c	8c	.	.	.	32dd	8ee	8g	8c	8c
.	.	.	.	.	.	32cc	.	.	.	.
.	.	.	.	.	.	32b	.	.	.	.
.	.	.	.	.	.	32a	.	.	.	.
.	4c	4c	.	.	.	32g#	4ee	4a	4c	4c
.	.	.	.	.	.	32a	.	.	.	.
.	.	.	.	.	.	32b	.	.	.	.
.	.	.	.	.	.	32a	.	.	.	.
.	.	.	.	.	.	32cc	.	.	.	.
.	.	.	.	.	.	32b	.	.	.	.
.	.	.	.	.	.	32dd	.	.	.	.
.	.	.	.	.	.	32cc	.	.	.	.
.	8c#	8c#	.	.	.	16ee	8g	8e	8c#	8c#
.	.	.	.	.	.	16g	.	.	.	.
=12	=12	=12	=12	=12	=12	=12	=12	=12	=12	=12
2r	4d	4d	2r	2.r	2.r	32f#	4f#	4A	4d	4d
.	.	.	.	.	.	32g	.	.	.	.
.	.	.	.	.	.	32a	.	.	.	.
.	.	.	.	.	.	32b	.	.	.	.
.	.	.	.	.	.	32cc#	.	.	.	.
.	.	.	.	.	.	32dd	.	.	.	.
.	.	.	.	.	.	32cc#	.	.	.	.
.	.	.	.	.	.	32dd	.	.	.	.
.	8D	8D	.	.	.	32cc#	8f#	8A	8d	8D
.	.	.	.	.	.	32dd	.	.	.	.
.	.	.	.	.	.	32cc#	.	.	.	.
.	.	.	.	.	.	32dd	.	.	.	.
.	4D	4D	.	.	.	8d	4f#	4A	4d	4D
8r	.	.	8r	.	.	4r	.	.	.	.
8g	8r	8r	8g	.	.	.	8r	8r	8r	8r
=13	=13	=13	=13	=13	=13	=13	=13	=13	=13	=13
8.cc	4D	4D	16cc	2.r	2.r	2.r	2.r	2.r	2.r	4D
.	.	.	16g	.	.	.	.	.	.	.
.	.	.	16e	.	.	.	.	.	.	.
16dd	.	.	16g	.	.	.	.	.	.	.
8cc	8D	8D	16c	.	.	.	.	.	.	8D
.	.	.	16e	.	.	.	.	.	.	.
4dd	4A	4A	16G	.	.	.	.	.	.	4A
.	.	.	16g	.	.	.	.	.	.	.
.	.	.	16b	.	.	.	.	.	.	.
.	.	.	16g	.	.	.	.	.	.	.
8ee	8D	8D	16cc	.	.	.	.	.	.	8D
.	.	.	16g	.	.	.	.	.	.	.
=14	=14	=14	=14	=14	=14	=14	=14	=14	=14	=14
8ff	4AA	4AA	16dd	2.r	2.r	[2.aa	4.r	4.r	4.r	4AA
.	.	.	16g	.	.	.	.	.	.	.
8ee	.	.	16cc	.	.	.	.	.	.	.
.	.	.	16g	.	.	.	.	.	.	.
8dd	8AA	8AA	16G	.	.	.	.	.	.	8AA
.	.	.	16g	.	.	.	.	.	.	.
8ee	8D	8D	8c	.	.	.	8ff# 8a 8d	8d 8a 8ff#	8d	8D
16r	8DD	8DD	4r	.	.	.	4r	4r	4r	8DD
16cc	.	.	.	.	.	.	.	.	.	.
16ee	8r	8r	.	.	.	.	.	.	.	8r
16gg	.	.	.	.	.	.	.	.	.	.
=15	=15	=15	=15	=15	=15	=15	=15	=15	=15	=15
8ff	4AA	4AA	16dd	2.r	2.r	2.aa_	4.r	4.r	4.r	4AA
.	.	.	16g	.	.	.	.	.	.	.
8ee	.	.	16cc	.	.	.	.	.	.	.
.	.	.	16g	.	.	.	.	.	.	.
8dd	8AA	8AA	16G	.	.	.	.	.	.	8AA
.	.	.	16g	.	.	.	.	.	.	.
8ee	8D	8D	8c	.	.	.	8d 8a 8ff#	8d 8ff# 8a	8d	8D
16r	8DD	8DD	4r	.	.	.	4r	4r	4r	8DD
16cc	.	.	.	.	.	.	.	.	.	.
16ee	8r	8r	.	.	.	.	.	.	.	8r
16gg	.	.	.	.	.	.	.	.	.	.
=16	=16	=16	=16	=16	=16	=16	=16	=16	=16	=16
8ff	4AA	4AA	16dd	2.r	2.r	4..aa]	4.r	4.r	4.r	4AA
.	.	.	16g	.	.	.	.	.	.	.
8ee	.	.	16cc	.	.	.	.	.	.	.
.	.	.	16g	.	.	.	.	.	.	.
8dd	8AA	8AA	16G	.	.	.	.	.	.	8AA
.	.	.	16g	.	.	.	.	.	.	.
8ee	4D	4D	8c	.	.	.	8a 8ff# 8d	8ff# 8a 8d	8d	4D
.	.	.	.	.	.	32bb	.	.	.	.
.	.	.	.	.	.	32ccc#	.	.	.	.
4r	.	.	4r	.	.	32ddd	4r	4r	4r	.
.	.	.	.	.	.	32ccc#	.	.	.	.
.	.	.	.	.	.	32ddd	.	.	.	.
.	.	.	.	.	.	32eee	.	.	.	.
.	8r	8r	.	.	.	32fff#	.	.	.	8r
.	.	.	.	.	.	32eee	.	.	.	.
.	.	.	.	.	.	32fff#	.	.	.	.
.	.	.	.	.	.	32ggg	.	.	.	.
=17	=17	=17	=17	=17	=17	=17	=17	=17	=17	=17
2.r	4d	4d	2.r	2.r	2.r	8aaa	8ff#	8ff#	4d	4d
.	.	.	.	.	.	8aaa	8ff#	8ff#	.	.
.	8d	8d	.	.	.	8aaa	8ff#	8ff#	8d	8d
.	4d	4d	.	.	.	8.aaa	8.ff#	8.ff#	4d	4d
.	.	.	.	.	.	16ggg	16ee	16ee	.	.
.	8d	8d	.	.	.	8fff#	8dd	8dd	8d	8d
=18	=18	=18	=18	=18	=18	=18	=18	=18	=18	=18
2.r	4G	4G	2.r	2.r	2.r	8eee	8ee	8b	4G	4G
.	.	.	.	.	.	32eee	8r	8r	.	.
.	.	.	.	.	.	32fff#	.	.	.	.
.	.	.	.	.	.	32ggg	.	.	.	.
.	.	.	.	.	.	32fff#	.	.	.	.
.	8G	8G	.	.	.	32eee	8ee	8b	8G	8G
.	.	.	.	.	.	32fff#	.	.	.	.
.	.	.	.	.	.	32ggg	.	.	.	.
.	.	.	.	.	.	32fff#	.	.	.	.
.	4G	4G	.	.	.	8eee	8ee	8b	4G	4G
.	.	.	.	.	.	32eee	8r	8r	.	.
.	.	.	.	.	.	32ggg	.	.	.	.
.	.	.	.	.	.	32bbb	.	.	.	.
.	.	.	.	.	.	32ggg	.	.	.	.
.	8G	8G	.	.	.	32eee	8ee	8b	8G	8G
.	.	.	.	.	.	32ggg	.	.	.	.
.	.	.	.	.	.	32bbb	.	.	.	.
.	.	.	.	.	.	32ggg	.	.	.	.
=19	=19	=19	=19	=19	=19	=19	=19	=19	=19	=19
2.r	4G	4G	2.r	2.r	2.r	8eee	8ee	4b	4G	4G
.	.	.	.	.	.	8ggg	8gg	.	.	.
.	8E	8E	.	.	.	8ggg	8gg	8cc#	8e	8E
.	4D	4D	.	.	.	8.fff#	8.ff#	8.dd	4d	4D
.	.	.	.	.	.	16ggg	16gg	16ee	.	.
.	8A	8A	.	.	.	8eee	8ee	8cc#	8a	8A
=20	=20	=20	=20	=20	=20	=20	=20	=20	=20	=20
2r	8D	8D	2r	2.r	2.r	8ddd	8dd	8dd	8d	8D
.	16r	16r	.	.	.	2r	16r	16r	16r	16r
.	32D	32D	.	.	.	.	32d	32d	32d	32D
.	32E	32E	.	.	.	.	32e	32e	32e	32E
.	32F#	32F#	.	.	.	.	32f#	32f#	32f#	32F#
.	32E	32E	.	.	.	.	32e	32e	32e	32E
.	32F#	32F#	.	.	.	.	32f#	32f#	32f#	32F#
.	32G	32G	.	.	.	.	32g	32g	32g	32G
.	8A	8A	.	.	.	.	8a	8a	8a	8A
8gg	4r	4r	8g	.	.	.	4r	4r	4r	8r
8gg	.	.	8g	.	.	8aa	.	.	.	8a
=21	=21	=21	=21	=21	=21	=21	=21	=21	=21	=21
[2.gg	4A	4A	[2.g	2.r	2.r	16aa	4g	4e	4A	4a
.	.	.	.	.	.	16gg	.	.	.	.
.	.	.	.	.	.	16ee	.	.	.	.
.	.	.	.	.	.	16cc#	.	.	.	.
.	8A	8A	.	.	.	16a	8g	8e	8A	8cc#
.	.	.	.	.	.	16g	.	.	.	.
.	4A	4A	.	.	.	8f#	4f#	4d	4A	16cc#
.	.	.	.	.	.	.	.	.	.	16dd
.	.	.	.	.	.	8r	.	.	.	16a
.	.	.	.	.	.	.	.	.	.	16f#
.	8A	8A	.	.	.	8aa	8f#	8d	8A	16d
.	.	.	.	.	.	.	.	.	.	16f#
=22	=22	=22	=22	=22	=22	=22	=22	=22	=22	=22
2.gg_	4A	4A	2.g_	2.r	2.r	16aa	4g	4e	4A	8A
.	.	.	.	.	.	16gg	.	.	.	.
.	.	.	.	.	.	16ee	.	.	.	8cc#
.	.	.	.	.	.	16cc#	.	.	.	.
.	8A	8A	.	.	.	16a	8g	8e	8A	8cc#
.	.	.	.	.	.	16g	.	.	.	.
.	4A	4A	.	.	.	8f#	4f#	4d	4A	16cc#
.	.	.	.	.	.	.	.	.	.	16dd
.	.	.	.	.	.	8r	.	.	.	16a
.	.	.	.	.	.	.	.	.	.	16f#
.	8A	8A	.	.	.	8aa	8f#	8d	8A	16d
.	.	.	.	.	.	.	.	.	.	16f#
=23	=23	=23	=23	=23	=23	=23	=23	=23	=23	=23
4.gg]	4A	4A	4.g]	2.r	2.r	16aa	4g	4e	4A	8A
.	.	.	.	.	.	16gg	.	.	.	.
.	.	.	.	.	.	16ee	.	.	.	8cc#
.	.	.	.	.	.	16cc#	.	.	.	.
.	8A	8A	.	.	.	16a	8g	8e	8A	8cc#
.	.	.	.	.	.	16g	.	.	.	.
8ee	4D	4D	8cc	.	.	8f#	4f#	4d	4d	16cc#
.	.	.	.	.	.	.	.	.	.	16dd
4r	.	.	4r	.	.	4r	.	.	.	8a
.	8F#	8F#	.	.	.	.	8a	8d	8f#	8a
=24	=24	=24	=24	=24	=24	=24	=24	=24	=24	=24
2.r	4F#	4F#	2.r	2.r	2.r	2.r	4a	4d	4f#	8.a
.	.	.	.	.	.	.	.	.	.	16b
.	8F#	8F#	.	.	.	.	8a	8d	8f#	8cc
.	4G	4G	.	.	.	.	4b	4d	4g	8b
.	.	.	.	.	.	.	.	.	.	8b
.	8G	8G	.	.	.	.	8b	8e	8g	8b
=25	=25	=25	=25	=25	=25	=25	=25	=25	=25	=25
2.r	4G#	4G#	2.r	2.r	2.r	2r	4b	4e	4g#	8.b
.	.	.	.	.	.	.	.	.	.	16cc#
.	8G#	8G#	.	.	.	.	8b	8e	8g#	8dd
.	8A	8A	.	.	.	.	8cc#	8e	8a	8cc#
.	8AA	8AA	.	.	.	8A	8A	8A	8A	8AA
.	8AA	8AA	.	.	.	8A	8A	8A	8A	8AA
=26	=26	=26	=26	=26	=26	=26	=26	=26	=26	=26
8r	8.AA	8.AA	8r	2.r	2.r	8.A	8.A	8.A	8.A	8.AA
8gg	.	.	8g	.	.	.	.	.	.	.
.	32BB	32BB	.	.	.	32B	32B	32B	32B	32BB
.	32C#	32C#	.	.	.	32c#	32c#	32c#	32c#	32C#
8gg	32D	32D	8g	.	.	32d	32d	32d	32d	32D
.	32E	32E	.	.	.	32e	32e	32e	32e	32E
.	32F#	32F#	.	.	.	32f#	32f#	32f#	32f#	32F#
.	32G#	32G#	.	.	.	32g#	32g#	32g#	32g#	32G#
8gg	8A	8A	8g	.	.	8a	8a	8a	8a	8A
4r	4r	4r	4r	.	.	8r	8r	8r	4r	4r
.	.	.	.	.	.	8a	8a	8a	.	.
=27	=27	=27	=27	=27	=27	=27	=27	=27	=27	=27
2.r	4d	4d	2.r	2.r	2.r	8.dd	8.dd	8.f#	4d	4d
.	.	.	.	.	.	16ee	16ee	16g	.	.
.	8d	8d	.	.	.	8dd	8dd	8f#	8d	8d
.	4B	4B	.	.	.	4dd	4dd	4f#	4B	4B
.	8B	8B	.	.	.	8dd	8dd	8f#	8B	8B
=28	=28	=28	=28	=28	=28	=28	=28	=28	=28	=28
2.r	4.A#	4.A#	2.r	2.r	2.r	4.cc#	4.cc#	[2f#	4.A#	4.A#
.	4B	4B	.	.	.	4dd	4dd	.	4B	4B
.	.	.	.	.	.	.	.	8f#]	.	.
.	8G	8G	.	.	.	8ee	8ee	8g	8g	8G
=29	=29	=29	=29	=29	=29	=29	=29	=29	=29	=29
2.r	4A	4A	2.r	2.r	2.r	8.a	8.a	4f#	4d	4A
.	.	.	.	.	.	16dd	16dd	.	.	.
.	8A	8A	.	.	.	8cc#	8cc#	8e	8g	8A
.	8D	8D	.	.	.	8dd	8dd	8d	8f#	8D
.	4r	4r	.	.	.	8r	8r	8r	4r	4r
.	.	.	.	.	.	8a	8a	8a	.	.
=30	=30	=30	=30	=30	=30	=30	=30	=30	=30	=30
2.r	4d	4d	2.r	2.r	2.r	8.dd	8.dd	4f#	4d	4d
.	.	.	.	.	.	16ee	16ee	.	.	.
.	8d	8d	.	.	.	8dd	8dd	8f#	8d	8d
.	4B	4B	.	.	.	4dd	4dd	4g#	4e	4B
.	8B	8B	.	.	.	8dd	8dd	8g#	8e	8B
=31	=31	=31	=31	=31	=31	=31	=31	=31	=31	=31
2.r	4.A	4.A	2.r	2.r	2.r	4.cc#	4.cc#	4.g	4.e	4.A
.	4B	4B	.	.	.	4dd	4dd	4f#	4d	4B
.	8G	8G	.	.	.	8ee	8ee	8g	8g	8G
=32	=32	=32	=32	=32	=32	=32	=32	=32	=32	=32
4.r	4A	4A	4.r	2.r	2.r	8.a	8.a	4f#	4d	4A
.	.	.	.	.	.	16dd	16dd	.	.	.
.	8A	8A	.	.	.	8cc#	8cc#	8e	8g	8A
[4.cc	8D	8D	[4.c	.	.	8dd	8dd	8d	8f#	16d
.	.	.	.	.	.	.	.	.	.	16d
.	8r	8r	.	.	.	8r	8r	8r	8r	32d
.	.	.	.	.	.	.	.	.	.	32e
.	.	.	.	.	.	.	.	.	.	32f#
.	.	.	.	.	.	.	.	.	.	32g
.	8D	8D	.	.	.	8dd	8dd	8f#	8a	32a
.	.	.	.	.	.	.	.	.	.	32b
.	.	.	.	.	.	.	.	.	.	32cc#
.	.	.	.	.	.	.	.	.	.	32dd
=33	=33	=33	=33	=33	=33	=33	=33	=33	=33	=33
2.cc_	4D	4D	2.c_	2.r	2.r	8b	8b	8g	8g	16b
.	.	.	.	.	.	.	.	.	.	16b
.	.	.	.	.	.	8r	8r	8r	8r	16b
.	.	.	.	.	.	.	.	.	.	32a
.	.	.	.	.	.	.	.	.	.	32g
.	8D	8D	.	.	.	8cc#	8cc#	8e	8g	32f#
.	.	.	.	.	.	.	.	.	.	32e
.	.	.	.	.	.	.	.	.	.	32d
.	.	.	.	.	.	.	.	.	.	32c#
.	4D	4D	.	.	.	8dd	8dd	8f#	8f#	16d
.	.	.	.	.	.	.	.	.	.	16d
.	.	.	.	.	.	8r	8r	8r	8r	32d
.	.	.	.	.	.	.	.	.	.	32e
.	.	.	.	.	.	.	.	.	.	32f#
.	.	.	.	.	.	.	.	.	.	32g
.	8D	8D	.	.	.	8dd	8dd	8f#	8a	32a
.	.	.	.	.	.	.	.	.	.	32b
.	.	.	.	.	.	.	.	.	.	32cc#
.	.	.	.	.	.	.	.	.	.	32dd
=34	=34	=34	=34	=34	=34	=34	=34	=34	=34	=34
2cc]	4D	4D	2c]	2.r	2.r	8b	8b	8g	8g	16b
.	.	.	.	.	.	.	.	.	.	16b
.	.	.	.	.	.	8r	8r	8r	8r	16b
.	.	.	.	.	.	.	.	.	.	32a
.	.	.	.	.	.	.	.	.	.	32g
.	8D	8D	.	.	.	8cc#	8cc#	8e	8g	32f#
.	.	.	.	.	.	.	.	.	.	32e
.	.	.	.	.	.	.	.	.	.	32d
.	.	.	.	.	.	.	.	.	.	32c#
.	8D	8D	.	.	.	8dd	8dd	8f#	8f#	8d
4r	4r	4r	4r	.	.	8r	8r	8r	4r	4r
.	.	.	.	.	.	8a	8a	8f#	.	.
=35	=35	=35	=35	=35	=35	=35	=35	=35	=35	=35
2r	8D	8D	2r	2.r	2.r	8f#	8f#	8d	8d	8D
.	4r	4r	.	.	.	8r	8r	8r	4r	4r
.	.	.	.	.	.	8a	8a	8f#	.	.
.	8D	8D	.	.	.	8f#	8f#	8d	8d	8D
8r	4r	4r	8r	.	.	4r	4r	4r	4r	4r
8g	.	.	8g	.	.	.	.	.	.	.
=36	=36	=36	=36	=36	=36	=36	=36	=36	=36	=36
8.cc	4D	4D	16cc	2.r	2.r	2.r	2.r	2.r	2.r	4D
.	.	.	16g	.	.	.	.	.	.	.
.	.	.	16e	.	.	.	.	.	.	.
16dd	.	.	16g	.	.	.	.	.	.	.
8cc	8D	8D	16c	.	.	.	.	.	.	8D
.	.	.	16e	.	.	.	.	.	.	.
4dd	4C#	4C#	16G	.	.	.	.	.	.	4C#
.	.	.	16g	.	.	.	.	.	.	.
.	.	.	16b	.	.	.	.	.	.	.
.	.	.	16g	.	.	.	.	.	.	.
8ee	8D	8D	16cc	.	.	.	.	.	.	8D
.	.	.	16g	.	.	.	.	.	.	.
=37	=37	=37	=37	=37	=37	=37	=37	=37	=37	=37
8ff	4AA	4AA	16dd	2.r	2.r	2.r	2.r	2.r	2.r	4AA
.	.	.	16g	.	.	.	.	.	.	.
8ee	.	.	16cc	.	.	.	.	.	.	.
.	.	.	16g	.	.	.	.	.	.	.
8dd	8AA	8AA	16G	.	.	.	.	.	.	8AA
.	.	.	16g	.	.	.	.	.	.	.
8.cc	8D	8D	4c	.	.	.	.	.	.	8D
.	4r	4r	.	.	.	.	.	.	.	4r
32dd	.	.	.	.	.	.	.	.	.	.
32ee	.	.	.	.	.	.	.	.	.	.
32ff	.	.	8r	.	.	.	.	.	.	.
32gg	.	.	.	.	.	.	.	.	.	.
32aa	.	.	.	.	.	.	.	.	.	.
32bb	.	.	.	.	.	.	.	.	.	.
=38	=38	=38	=38	=38	=38	=38	=38	=38	=38	=38
8ccc	2.r	2.r	32cc	3..r	3..r	2r	2r	2r	2.r	2.r
.	.	.	32ee	.	.	.	.	.	.	.
.	.	.	32gg	.	.	.	.	.	.	.
.	.	.	32ee	.	.	.	.	.	.	.
8ccc	.	.	32cc	.	.	.	.	.	.	.
.	.	.	32ee	.	.	.	.	.	.	.
.	.	.	32g	.	.	.	.	.	.	.
.	.	.	32cc	.	.	.	.	.	.	.
8ccc	.	.	32e	.	.	.	.	.	.	.
.	.	.	32g	.	.	.	.	.	.	.
.	.	.	32c	.	.	.	.	.	.	.
.	.	.	32e	.	.	.	.	.	.	.
[4.ccc	.	.	8C	.	.	.	.	.	.	.
.	.	.	4r	.	.	8r	8r	8r	.	.
.	.	.	.	24r	24r	.	.	.	.	.
.	.	.	.	8gg	8ee	8d	8d	8B	.	.
=39	=39	=39	=39	=39	=39	=39	=39	=39	=39	=39
2.ccc_	4GG	4GG	2.r	8.gg	8.ee	8.d	8.d	8.B	4G	4GG
.	.	.	.	16aa	16ff	16e	16e	16c	.	.
.	8GG	8GG	.	8gg	8ee	8d	8d	8B	8G	8GG
.	4D	4D	.	8ff	8dd	8c	8c	8A	4d	4D
.	.	.	.	8ee	8cc	8B	8B	8G	.	.
.	8D	8D	.	8dd	8g	8A	8A	8f#	8d	8D
=40	=40	=40	=40	=40	=40	=40	=40	=40	=40	=40
8ccc]	4GG	4GG	2.r	4cc	4e	8G	8.dd	8.b	4G	4GG
2r	.	.	.	.	.	2r	.	.	.	.
.	.	.	.	.	.	.	16ee	16cc	.	.
.	8GG	8GG	.	8r	8r	.	8dd	8b	8G	8GG
.	4D	4D	.	4g	4g	.	8cc	8a	4d	4D
.	.	.	.	.	.	.	8b	8g	.	.
8r	8D	8D	.	8g	8g	8r	8a	8f#	8d	8D
=41	=41	=41	=41	=41	=41	=41	=41	=41	=41	=41
2.r	4G	4G	2.r	4cc	4e	8.gg	4b	4g	4d	4G
.	.	.	.	.	.	16aa	.	.	.	.
.	8G	8G	.	2r	2r	8gg	8b	8d	8d	8G
.	4G	4G	.	.	.	16gg	4b	4f	4d	4G
.	.	.	.	.	.	16ff	.	.	.	.
.	.	.	.	.	.	16dd	.	.	.	.
.	.	.	.	.	.	16b	.	.	.	.
.	8G	8G	.	.	.	16g	8b	8f	8d	8G
.	.	.	.	.	.	16f	.	.	.	.
=42	=42	=42	=42	=42	=42	=42	=42	=42	=42	=42
2.r	4G	4G	2.r	2.r	2.r	8e	4cc	4e	4e	4G
.	.	.	.	.	.	8g	.	.	.	.
.	8G	8G	.	.	.	16cc	8cc	8e	8e	8G
.	.	.	.	.	.	16ee	.	.	.	.
.	4G	4G	.	.	.	16gg	4b	4f	4d	4G
.	.	.	.	.	.	16ff	.	.	.	.
.	.	.	.	.	.	16dd	.	.	.	.
.	.	.	.	.	.	16b	.	.	.	.
.	8G	8G	.	.	.	16g	8b	8f	8d	8G
.	.	.	.	.	.	16f	.	.	.	.
=43	=43	=43	=43	=43	=43	=43	=43	=43	=43	=43
2.r	4G#	4G#	2.r	2.r	2.r	8e	4b	4e	4B	4G#
.	.	.	.	.	.	8ee	.	.	.	.
.	8G#	8G#	.	.	.	8ee	8b	8e	8B	8G#
.	4G#	4G#	.	.	.	8.ee	4b	4e	4B	4G#
.	.	.	.	.	.	16ff	.	.	.	.
.	8G#	8G#	.	.	.	8dd	8b	8e	8B	8r
=44	=44	=44	=44	=44	=44	=44	=44	=44	=44	=44
[2.dd	4A	4A	[2.dd	2.r	2.r	8cc	4cc	4e	4A	16e
.	.	.	.	.	.	.	.	.	.	32f#
.	.	.	.	.	.	.	.	.	.	32g#
.	.	.	.	.	.	2r	.	.	.	32a
.	.	.	.	.	.	.	.	.	.	32b
.	.	.	.	.	.	.	.	.	.	32cc
.	.	.	.	.	.	.	.	.	.	32dd
.	8A	8A	.	.	.	.	8cc	8e	8A	16ee
.	.	.	.	.	.	.	.	.	.	16ee
.	4G#	4G#	.	.	.	.	4dd	4e	4G#	16ee
.	.	.	.	.	.	.	.	.	.	16dd
.	.	.	.	.	.	.	.	.	.	16b
.	.	.	.	.	.	.	.	.	.	16g#
.	8G#	8G#	.	.	.	8r	8b	8e	8G#	16e
.	.	.	.	.	.	.	.	.	.	16dd
=45	=45	=45	=45	=45	=45	=45	=45	=45	=45	=45
2.dd_	4A	4A	2.dd_	2.r	2.r	2.r	4cc	4e	4A	8cc
.	.	.	.	.	.	.	.	.	.	8ee
.	8A	8A	.	.	.	.	8cc	8e	8A	8ee
.	4G#	4G#	.	.	.	.	4dd	4e	4G#	16ee
.	.	.	.	.	.	.	.	.	.	16dd
.	.	.	.	.	.	.	.	.	.	16b
.	.	.	.	.	.	.	.	.	.	16g#
.	8G#	8G#	.	.	.	.	8b	8e	8G#	16e
.	.	.	.	.	.	.	.	.	.	16dd
=46	=46	=46	=46	=46	=46	=46	=46	=46	=46	=46
8dd]	4A	4A	8dd]	2.r	2.r	2.r	4cc	4e	4A	8cc
2r	.	.	2r	.	.	.	.	.	.	8e
.	8A	8A	.	.	.	.	8cc	8e	8A	8e
.	4A	4A	.	.	.	.	4cc	4f	4A	8f
.	.	.	.	.	.	.	.	.	.	8a
8r	8A	8A	8r	.	.	.	8cc	8f	8a	8cc
=47	=47	=47	=47	=47	=47	=47	=47	=47	=47	=47
2.r	4A	4A	2.r	2.r	2.r	32b	4b	4d#	4f#	4.d#
.	.	.	.	.	.	32cc#	.	.	.	.
.	.	.	.	.	.	32dd#	.	.	.	.
.	.	.	.	.	.	32ee	.	.	.	.
.	.	.	.	.	.	32ff#	.	.	.	.
.	.	.	.	.	.	32gg#	.	.	.	.
.	.	.	.	.	.	32aa#	.	.	.	.
.	.	.	.	.	.	32bb	.	.	.	.
.	8A	8A	.	.	.	32aa#	8b	8d#	8f#	.
.	.	.	.	.	.	32bb	.	.	.	.
.	.	.	.	.	.	32aa#	.	.	.	.
.	.	.	.	.	.	32bb	.	.	.	.
.	4G	4G	.	.	.	8b	4b	4e	4e	8e
.	.	.	.	.	.	4r	.	.	.	8g
.	8G	8G	.	.	.	.	8b	8e	8e	8b
=48	=48	=48	=48	=48	=48	=48	=48	=48	=48	=48
2.r	4G	4G	2.r	2.r	2.r	32a	4a	4c#	4e	4.c#
.	.	.	.	.	.	32b	.	.	.	.
.	.	.	.	.	.	32cc#	.	.	.	.
.	.	.	.	.	.	32dd	.	.	.	.
.	.	.	.	.	.	32ee	.	.	.	.
.	.	.	.	.	.	32ff#	.	.	.	.
.	.	.	.	.	.	32gg#	.	.	.	.
.	.	.	.	.	.	32aa	.	.	.	.
.	8G	8G	.	.	.	32gg#	8a	8c#	8e	.
.	.	.	.	.	.	32aa	.	.	.	.
.	.	.	.	.	.	32gg#	.	.	.	.
.	.	.	.	.	.	32aa	.	.	.	.
.	4F	4F	.	.	.	8a	4a	4d	4d	8d
.	.	.	.	.	.	4r	.	.	.	8f
.	8F	8F	.	.	.	.	8a	8d	8d	8a
=49	=49	=49	=49	=49	=49	=49	=49	=49	=49	=49
2.r	4F	4F	2.r	2.r	2.r	32g	4g	4B	4d	4.B
.	.	.	.	.	.	32a	.	.	.	.
.	.	.	.	.	.	32b	.	.	.	.
.	.	.	.	.	.	32cc	.	.	.	.
.	.	.	.	.	.	32dd	.	.	.	.
.	.	.	.	.	.	32ee	.	.	.	.
.	.	.	.	.	.	32ff#	.	.	.	.
.	.	.	.	.	.	32gg	.	.	.	.
.	8F	8F	.	.	.	32ff#	8g	8B	8d	.
.	.	.	.	.	.	32gg	.	.	.	.
.	.	.	.	.	.	32ff#	.	.	.	.
.	.	.	.	.	.	32gg	.	.	.	.
.	4E	4E	.	.	.	8g	4g	4c	4c	8c
.	.	.	.	.	.	8r	.	.	.	8e
.	8E	8E	.	.	.	[8ccc	8cc	8g	8e	8g
=50	=50	=50	=50	=50	=50	=50	=50	=50	=50	=50
2.r	4D#	4D#	2.r	2.r	2.r	8ccc]	8cc	4f#	4d#	4.f#
.	.	.	.	.	.	8bb	8b	.	.	.
.	8D#	8D#	.	.	.	8aa	8a	8f#	8d#	.
.	4E	4E	.	.	.	8.gg	4g	4e	4e	8.e
.	.	.	.	.	.	16aa	.	.	.	16f#
.	8AA#	8AA#	.	.	.	8gg	8g	8e	8A#	8e
=51	=51	=51	=51	=51	=51	=51	=51	=51	=51	=51
2.r	4BB	4BB	2.r	2.r	2.r	4.gg	4g	4e	4B	4.e
.	8BB	8BB	.	.	.	.	8g	8e	8B	.
.	4BB	4BB	.	.	.	4ff#	4f#	4d#	4B	4d#
.	8r	8r	.	.	.	8b	8b	8b	8r	8r
=52	=52	=52	=52	=52	=52	=52	=52	=52	=52	=52
2.r	4g	2.r	2.r	2.r	2.r	8.ee	8.ee	4b	4g	4g
.	.	.	.	.	.	16ff#	16ff#	.	.	.
.	8g	.	.	.	.	8ee	8ee	8b	8g	8g
.	4g	.	.	.	.	4ee	4ee	4b	4g	4g
.	8g	.	.	.	.	8ee	8ee	8b	8g	8g
=53	=53	=53	=53	=53	=53	=53	=53	=53	=53	=53
2.r	4.f#	2r	2.r	2.r	2.r	4.dd#	4.dd#	4.cc	4.a	4.f#
.	4g	.	.	.	.	4ee	4ee	4b	4g	4g
.	.	8r	.	.	.	.	.	.	.	.
.	8G	8G	.	.	.	8G	8G	8G	8g	8G
=54	=54	=54	=54	=54	=54	=54	=54	=54	=54	=54
2.r	8.A	8.A	2.r	2.r	2.r	8.A	8.A	8.A	8.a	8.A
.	16B	16B	.	.	.	16B	16B	16B	16b	16B
.	8c	8c	.	.	.	8c	8c	8c	8cc	8c
.	4B	4B	.	.	.	8B	8B	8B	4b	4B
.	.	.	.	.	.	8g	8g	8e	.	.
.	8B	8B	.	.	.	8f#	8f#	8d#	8B	8B
=55	=55	=55	=55	=55	=55	=55	=55	=55	=55	=55
2.dd	4E	4E	2.dd	2.r	2.r	16e	16e	16e	4e	4E
.	.	.	.	.	.	16e	16e	16e	.	.
.	.	.	.	.	.	32e	32e	32e	.	.
.	.	.	.	.	.	32f#	32f#	32f#	.	.
.	.	.	.	.	.	32g	32g	32g	.	.
.	.	.	.	.	.	32a	32a	32a	.	.
.	8G	8G	.	.	.	32b	32b	32b	8e	8G
.	.	.	.	.	.	32cc	32cc	32cc	.	.
.	.	.	.	.	.	32dd	32dd	32dd	.	.
.	.	.	.	.	.	32ee	32ee	32ee	.	.
.	4A	4A	.	.	.	16cc	16cc	16cc	4e	4A
.	.	.	.	.	.	16cc	16cc	16cc	.	.
.	.	.	.	.	.	16cc	16cc	16cc	.	.
.	.	.	.	.	.	32ee	32ee	32ee	.	.
.	.	.	.	.	.	32dd	32dd	32dd	.	.
.	8c	8c	.	.	.	32cc	32cc	32cc	8e	8c
.	.	.	.	.	.	32b	32b	32b	.	.
.	.	.	.	.	.	32a	32a	32a	.	.
.	.	.	.	.	.	32g	32g	32g	.	.
=56	=56	=56	=56	=56	=56	=56	=56	=56	=56	=56
2.cc	4d	4d	2.cc	2.r	2.r	16f#	16f#	16f#	8A	4d
.	.	.	.	.	.	16d	16d	16d	.	.
.	.	.	.	.	.	32d	32d	32d	8a	.
.	.	.	.	.	.	32e	32e	32e	.	.
.	.	.	.	.	.	32f#	32f#	32f#	.	.
.	.	.	.	.	.	32g	32g	32g	.	.
.	8F#	8F#	.	.	.	32a	32a	32a	8d	8F#
.	.	.	.	.	.	32b	32b	32b	.	.
.	.	.	.	.	.	32cc	32cc	32cc	.	.
.	.	.	.	.	.	32dd	32dd	32dd	.	.
.	4G	4G	.	.	.	16b	16b	16b	4d	4G
.	.	.	.	.	.	16b	16b	16b	.	.
.	.	.	.	.	.	16b	16b	16b	.	.
.	.	.	.	.	.	32dd	32dd	32dd	.	.
.	.	.	.	.	.	32cc	32cc	32cc	.	.
.	8B	8B	.	.	.	32b	32b	32b	8d	8B
.	.	.	.	.	.	32a	32a	32a	.	.
.	.	.	.	.	.	32g	32g	32g	.	.
.	.	.	.	.	.	32f#	32f#	32f#	.	.
=57	=57	=57	=57	=57	=57	=57	=57	=57	=57	=57
4.dd	8c	8c	4.dd	2.r	2.r	16e	16e	16e	8G	8c
.	.	.	.	.	.	16cc	16cc	16cc	.	.
.	8A	8A	.	.	.	16cc	16cc	16cc	8e	8A
.	.	.	.	.	.	32ee	32ee	32ee	.	.
.	.	.	.	.	.	32dd	32dd	32dd	.	.
.	8c	8c	.	.	.	32cc	32cc	32cc	8e	8c
.	.	.	.	.	.	32b	32b	32b	.	.
.	.	.	.	.	.	32a	32a	32a	.	.
.	.	.	.	.	.	32g	32g	32g	.	.
4cc	16d	16d	4cc	.	.	16f#	16f#	16f#	16d	16d
.	16D	16D	.	.	.	16d	16d	16d	16d	16D
.	16D	16D	.	.	.	16d	16d	16d	16d	16D
.	32E	32E	.	.	.	32e	32e	32e	32e	32E
.	32F#	32F#	.	.	.	32f#	32f#	32f#	32f#	32F#
8cc	32G	32G	8c	.	.	32g	32g	32g	32g	32G
.	32A	32A	.	.	.	32a	32a	32a	32a	32A
.	32B	32B	.	.	.	32b	32b	32b	32b	32B
.	32c#	32c#	.	.	.	32cc#	32cc#	32cc#	32cc#	32c#
=58	=58	=58	=58	=58	=58	=58	=58	=58	=58	=58
4cc	16d	16d	4c	2.r	2.r	16dd	16dd	16dd	16dd	16d
.	16D	16D	.	.	.	16d	16d	16d	16d	16D
.	16D	16D	.	.	.	16d	16d	16d	16d	16D
.	32E	32E	.	.	.	32e	32e	32e	32e	32E
.	32F#	32F#	.	.	.	32f#	32f#	32f#	32f#	32F#
8cc	32G	32G	8c	.	.	32g	32g	32g	32g	32G
.	32A	32A	.	.	.	32a	32a	32a	32a	32A
.	32B	32B	.	.	.	32b	32b	32b	32b	32B
.	32c#	32c#	.	.	.	32cc#	32cc#	32cc#	32cc#	32c#
4cc	8d	8d	4c	.	.	4dd	8dd	8dd	8dd	8d
.	4r	4r	.	.	.	.	4r	4r	4r	4r
8r	.	.	8r	.	.	8dd	.	.	.	.
=59	=59	=59	=59	=59	=59	=59	=59	=59	=59	=59
2.r	4G	4G	2.r	4.cc	4.e	8.dd	4b	4d	4g	4G
.	.	.	.	.	.	16ee	.	.	.	.
.	8G	8G	.	.	.	8dd	8b	8d	8g	8G
.	4F#	4F#	.	4.dd	4.g	16dd	4cc	4d	4f#	4F#
.	.	.	.	.	.	16cc	.	.	.	.
.	.	.	.	.	.	16a	.	.	.	.
.	.	.	.	.	.	16f#	.	.	.	.
.	8F#	8F#	.	.	.	16d	8a	8d	8f#	8F#
.	.	.	.	.	.	16c	.	.	.	.
=60	=60	=60	=60	=60	=60	=60	=60	=60	=60	=60
2.r	4G	4G	2.r	4ee	4cc	8B	4b	4d	4g	4G
.	.	.	.	.	.	8d	.	.	.	.
.	8G	8G	.	2r	2r	8g	8b	8d	8G	8G
.	4G	4G	.	.	.	4b	4b	4d	4G	4G
.	8G	8G	.	.	.	32a	8b	8g	8G	8G
.	.	.	.	.	.	32g	.	.	.	.
.	.	.	.	.	.	32f#	.	.	.	.
.	.	.	.	.	.	32g	.	.	.	.
=61	=61	=61	=61	=61	=61	=61	=61	=61	=61	=61
2.r	4A	4A	2.r	2.r	2.r	4cc	4cc	4f#	4A	4A
.	8A	8A	.	.	.	32b	8cc	8a	8A	8A
.	.	.	.	.	.	32a	.	.	.	.
.	.	.	.	.	.	32g	.	.	.	.
.	.	.	.	.	.	32f#	.	.	.	.
.	4B	4B	.	.	.	4dd	4dd	4g	4B	4B
.	8B	8B	.	.	.	32cc	8dd	8g	8B	8B
.	.	.	.	.	.	32b	.	.	.	.
.	.	.	.	.	.	32a	.	.	.	.
.	.	.	.	.	.	32g	.	.	.	.
=62	=62	=62	=62	=62	=62	=62	=62	=62	=62	=62
2.r	4c	4c	2.r	2.r	2.r	32dd#	4ee	4g	4c	4c
.	.	.	.	.	.	32ee	.	.	.	.
.	.	.	.	.	.	32dd#	.	.	.	.
.	.	.	.	.	.	32ee	.	.	.	.
.	.	.	.	.	.	32dd#	.	.	.	.
.	.	.	.	.	.	32ee	.	.	.	.
.	.	.	.	.	.	32dd#	.	.	.	.
.	.	.	.	.	.	32ee	.	.	.	.
.	8c	8c	.	.	.	32dd	8ee	8g	8c	8c
.	.	.	.	.	.	32cc	.	.	.	.
.	.	.	.	.	.	32b	.	.	.	.
.	.	.	.	.	.	32a	.	.	.	.
.	4c	4c	.	.	.	32g#	4ee	4a	4c	4c
.	.	.	.	.	.	32a	.	.	.	.
.	.	.	.	.	.	32b	.	.	.	.
.	.	.	.	.	.	32a	.	.	.	.
.	.	.	.	.	.	32cc	.	.	.	.
.	.	.	.	.	.	32b	.	.	.	.
.	.	.	.	.	.	32dd	.	.	.	.
.	.	.	.	.	.	32cc	.	.	.	.
.	8c#	8c#	.	.	.	16ee	8g	8e	8c#	8c#
.	.	.	.	.	.	16g	.	.	.	.
=63	=63	=63	=63	=63	=63	=63	=63	=63	=63	=63
2r	4d	4d	2r	2.r	2.r	32f#	4f#	4A	4d	4d
.	.	.	.	.	.	32g	.	.	.	.
.	.	.	.	.	.	32a	.	.	.	.
.	.	.	.	.	.	32b	.	.	.	.
.	.	.	.	.	.	32cc#	.	.	.	.
.	.	.	.	.	.	32dd	.	.	.	.
.	.	.	.	.	.	32cc#	.	.	.	.
.	.	.	.	.	.	32dd	.	.	.	.
.	8D	8D	.	.	.	32cc#	8f#	8A	8d	8D
.	.	.	.	.	.	32dd	.	.	.	.
.	.	.	.	.	.	32cc#	.	.	.	.
.	.	.	.	.	.	32dd	.	.	.	.
.	4D	4D	.	.	.	8d	4f#	4A	4d	4D
8cc	.	.	8c	.	.	8r	.	.	.	.
8cc	8r	8r	8c	.	.	8ddd	8r	8r	8r	8d
=64	=64	=64	=64	=64	=64	=64	=64	=64	=64	=64
[2.cc	4D	4D	[2.c	4.dd	4.g	16ddd	4cc	4a	4d	4d
.	.	.	.	.	.	16ccc	.	.	.	.
.	.	.	.	.	.	16aa	.	.	.	.
.	.	.	.	.	.	16ff#	.	.	.	.
.	8D	8D	.	.	.	16dd	8cc	8a	8d	8f#
.	.	.	.	.	.	16cc	.	.	.	.
.	4D	4D	.	8ee	8cc	8b	4b	4g	4d	16f#
.	.	.	.	.	.	.	.	.	.	16g
.	.	.	.	4r	4r	8r	.	.	.	16d
.	.	.	.	.	.	.	.	.	.	16B
.	8D	8D	.	.	.	8ddd	8b	8g	8d	16G
.	.	.	.	.	.	.	.	.	.	16B
=65	=65	=65	=65	=65	=65	=65	=65	=65	=65	=65
2.cc_	4D	4D	2.c_	4.dd	4.g	16ddd	4cc	4a	4d	8D
.	.	.	.	.	.	16ccc	.	.	.	.
.	.	.	.	.	.	16aa	.	.	.	8f#
.	.	.	.	.	.	16ff#	.	.	.	.
.	8D	8D	.	.	.	16dd	8cc	8a	8d	8f#
.	.	.	.	.	.	16cc	.	.	.	.
.	4D	4D	.	8ee	8cc	8b	4b	4g	4d	16f#
.	.	.	.	.	.	.	.	.	.	16g
.	.	.	.	4r	4r	8r	.	.	.	16d
.	.	.	.	.	.	.	.	.	.	16B
.	8D	8D	.	.	.	8ddd	8b	8g	8d	16G
.	.	.	.	.	.	.	.	.	.	16B
=66	=66	=66	=66	=66	=66	=66	=66	=66	=66	=66
2cc]	4D	4D	2c]	4.dd	4.g	16ddd	4cc	4a	4d	8D
.	.	.	.	.	.	16ccc	.	.	.	.
.	.	.	.	.	.	16aa	.	.	.	8f#
.	.	.	.	.	.	16ff#	.	.	.	.
.	8D	8D	.	.	.	16dd	8cc	8a	8d	8f#
.	.	.	.	.	.	16cc	.	.	.	.
.	4G	4G	.	8ee	8cc	8b	4b	4g	4g	16f#
.	.	.	.	.	.	.	.	.	.	16g
4r	.	.	4r	4r	4r	4r	.	.	.	8d
.	8BB	8BB	.	.	.	.	8dd	8g	8B	8d
=67	=67	=67	=67	=67	=67	=67	=67	=67	=67	=67
2.r	4BB	4BB	2.r	2.r	2.r	2.r	4dd	4g	4B	8.d
.	.	.	.	.	.	.	.	.	.	16e
.	8BB	8BB	.	.	.	.	8dd	8g	8B	8f
.	4C	4C	.	.	.	.	4ee	4g	4c	8e
.	.	.	.	.	.	.	.	.	.	8e
.	8C	8C	.	.	.	.	8ee	8a	8c	8e
=68	=68	=68	=68	=68	=68	=68	=68	=68	=68	=68
2r	4C#	4C#	2r	2.r	2.r	2r	4ee	4a	4c#	8.e
.	.	.	.	.	.	.	.	.	.	16f#
.	8C#	8C#	.	.	.	.	8ee	8a	8c#	8g
.	8D	8D	.	.	.	.	8ff#	8a	8d	8f#
8cc	8D	8D	8c	.	.	8d	8d	8d	8d	8D
8cc	8D	8D	8c	.	.	8d	8d	8d	8d	8D
=69	=69	=69	=69	=69	=69	=69	=69	=69	=69	=69
4cc	8.D	8.D	4c	2.r	2.r	8.d	8.d	8.d	8.d	8.D
.	32E	32E	.	.	.	32e	32e	32e	32e	32E
.	32F#	32F#	.	.	.	32f#	32f#	32f#	32f#	32F#
8r	32G	32G	8r	.	.	32g	32g	32g	32g	32G
.	32A	32A	.	.	.	32a	32a	32a	32a	32A
.	32B	32B	.	.	.	32b	32b	32b	32b	32B
.	32c#	32c#	.	.	.	32cc#	32cc#	32cc#	32cc#	32c#
8cc	8d	8d	8c	.	.	8dd	8dd	8dd	8dd	8d
4r	4r	4r	4r	.	.	8r	8r	8r	4r	4r
.	.	.	.	.	.	8d	8d	8d	.	.
=70	=70	=70	=70	=70	=70	=70	=70	=70	=70	=70
2.r	4G	4G	2.r	2.r	2.r	8.g	8.g	8.B	4g	4G
.	.	.	.	.	.	16a	16a	16c	.	.
.	8G	8G	.	.	.	8g	8g	8B	8g	8G
.	4E	4E	.	.	.	4g	4g	4B	4e	4E
.	8E	8E	.	.	.	8g	8g	8B	8e	8E
=71	=71	=71	=71	=71	=71	=71	=71	=71	=71	=71
2.r	4.D#	4.D#	2.r	2.r	2.r	4.f#	4.f#	[2B	4.d#	4.D#
.	4E	4E	.	.	.	4g	4g	.	4e	4E
.	.	.	.	.	.	.	.	8B]	.	.
.	8C	8C	.	.	.	8a	8a	8c	8c	8C
=72	=72	=72	=72	=72	=72	=72	=72	=72	=72	=72
2.r	4D	4D	2.r	2.r	2.r	8.d	8.d	4B	4G	4D
.	.	.	.	.	.	16g	16g	.	.	.
.	8D	8D	.	.	.	8f#	8f#	8A	8c	8D
.	8GG	8GG	.	.	.	8g	8g	8G	8B	8GG
.	4r	4r	.	.	.	8r	8r	8r	4r	4r
.	.	.	.	.	.	8d	8d	8d	.	.
=73	=73	=73	=73	=73	=73	=73	=73	=73	=73	=73
2.r	4G	4G	2.r	2.r	2.r	8.g	8.g	4B	4G	4G
.	.	.	.	.	.	16a	16a	.	.	.
.	8G	8G	.	.	.	8g	8g	8B	8G	8G
.	4E	4E	.	.	.	4g	4g	4c#	4A	4E
.	8E	8E	.	.	.	8g	8g	8c#	8A	8E
=74	=74	=74	=74	=74	=74	=74	=74	=74	=74	=74
2.r	4.D	4.D	2.r	2.r	2.r	4.f#	4.f#	4.c	4.A	4.D
.	4E	4E	.	.	.	4g	4g	4B	4G	4E
.	8C	8C	.	.	.	8a	8a	8c	8c	8C
=75	=75	=75	=75	=75	=75	=75	=75	=75	=75	=75
2.r	4D	4D	2.r	4.r	4.r	8.d	8.d	8.B	4G	4D
.	.	.	.	.	.	16g	16g	16c	.	.
.	8D	8D	.	.	.	8f#	8f#	8A	8c	8D
.	8G	8G	.	[4.cc	[4.c	8g	8g	8G	8B	16G
.	.	.	.	.	.	.	.	.	.	16G
.	8r	8r	.	.	.	8r	8r	8r	8r	32G
.	.	.	.	.	.	.	.	.	.	32A
.	.	.	.	.	.	.	.	.	.	32B
.	.	.	.	.	.	.	.	.	.	32c
.	8G	8G	.	.	.	8g	8g	8B	8d	32d
.	.	.	.	.	.	.	.	.	.	32e
.	.	.	.	.	.	.	.	.	.	32f#
.	.	.	.	.	.	.	.	.	.	32g
=76	=76	=76	=76	=76	=76	=76	=76	=76	=76	=76
2.r	4G	4G	2.r	2.cc_	2.c_	8e	8e	8c	8c	16e
.	.	.	.	.	.	.	.	.	.	16e
.	.	.	.	.	.	8r	8r	8r	8r	16e
.	.	.	.	.	.	.	.	.	.	32d
.	.	.	.	.	.	.	.	.	.	32c
.	8G	8G	.	.	.	8f#	8f#	8A	8c	32B
.	.	.	.	.	.	.	.	.	.	32A
.	.	.	.	.	.	.	.	.	.	32G
.	.	.	.	.	.	.	.	.	.	32F#
.	4G	4G	.	.	.	8g	8g	8B	8B	16G
.	.	.	.	.	.	.	.	.	.	16G
.	.	.	.	.	.	8r	8r	8r	8r	32G
.	.	.	.	.	.	.	.	.	.	32A
.	.	.	.	.	.	.	.	.	.	32B
.	.	.	.	.	.	.	.	.	.	32c
.	8G	8G	.	.	.	8g	8g	8B	8d	32d
.	.	.	.	.	.	.	.	.	.	32e
.	.	.	.	.	.	.	.	.	.	32f#
.	.	.	.	.	.	.	.	.	.	32g
=77	=77	=77	=77	=77	=77	=77	=77	=77	=77	=77
2.r	4G	4G	2.r	2cc]	2c]	8e	8e	8c	8c	16e
.	.	.	.	.	.	.	.	.	.	16e
.	.	.	.	.	.	8r	8r	8r	8r	16e
.	.	.	.	.	.	.	.	.	.	32d
.	.	.	.	.	.	.	.	.	.	32c
.	8G	8G	.	.	.	8f#	8f#	8A	8c	32B
.	.	.	.	.	.	.	.	.	.	32A
.	.	.	.	.	.	.	.	.	.	32G
.	.	.	.	.	.	.	.	.	.	32F#
.	8G	8G	.	.	.	8g	8g	8B	8B	8G
.	4r	4r	.	4r	4r	8r	8r	8r	4r	4r
.	.	.	.	.	.	8d	8d	8B	.	.
=78	=78	=78	=78	=78	=78	=78	=78	=78	=78	=78
2.r	8G	8G	2.r	2.r	2.r	8B	8B	8G	8G	8G
.	4r	4r	.	.	.	8r	8r	8r	4r	4r
.	.	.	.	.	.	8d	8d	8B	.	.
.	8G	8G	.	.	.	8B	8B	8G	8G	8G
.	4r	4r	.	.	.	4r	4r	4r	4r	4r
==	==	==	==	==	==	==	==	==	==	==
*-	*-	*-	*-	*-	*-	*-	*-	*-	*-	*-
!!!RWG1: This file contains only pitch and duration data.
!!!RWG2: Transposing instruments are not transposed.
!!!RWG3: Spines may have incompatible meters.
!!!RWG4: Durations of rests and tied notes may be interpreted.
!!!RWG: Key is interpreted using the Humdrum key tool.
!!!OPT: Hornsignal 
!!!AFT: stage1 
!!!END: 2000/12/13
!!format changes:
!!content changes:
!!public access: complete
!!!KEY: 4217739499
!!!EMD: Converted from MuseData to Humdrum Dec 16, 2000, by Andreas Kornstaedt using muse2kern.
